X:1
T:Title
%%score { ( 1 4 ) | ( 2 3 ) }
L:1/8
M:9/8
K:Ab
V:1 treble nm="Grand Piano"
V:4 treble 
V:2 bass 
V:3 bass 
V:1
 z3 z3[Q:1/4=100] [CE][DF][A,C] | [CE]3 [CE]3 [CA][DB][Ec] | B3 F3 G2 F | %3
 E3 [CEA]3 [B,DG]2 [A,CA] |[M:3/4] [EB]6 |[M:3/8] [CE][DF][A,C] |[M:9/8] [CE]3 [CE]3 [CA][DB][Ec] | %7
 [DB]3 [DF]3 [EG]2 [EA] | [=DB]3 [DF]3 [DB]2 [Dc] |[M:3/4] B6 |[M:3/8] B2 c |[M:9/8] d3 G3 c2 B | %12
 A3 F3 F2 G | A3 F3 [FA]2 [FB] |[M:3/4] [=Ec]6 |[M:3/8] c2 d |[M:9/8] e3 A3 B2 c | [Fd]3 F3 G2 F | %18
 E3 c3 B2 E |[M:3/4] [CA]6 |[M:3/8] [A,C][B,D][CE] |[M:9/8] [DF]3 [CE]3 ABc | d3 c3 [FB]2 [DF] | %23
 [=DB]3 [DF]3 [DB]2 [Dc] |[M:3/4] B6 |[M:3/8] CD[CE] |[M:9/8] [DF]3 [CE]3 AB[EAc] | %27
 [FAe]3 [FAd]3 [Fc]2 [FB] | A3 E3 B2 c |[M:3/4] [CA]6 |] %30
V:2
 z3 z3 [A,,A,]2 [A,,E,] | [A,,A,]3 [A,,A,]3 [A,,A,]2 [A,,A,] | [D,F,D]3 [D,A,D]3 [D,A,D]2 [D,A,D] | %3
 [C,A,]3 A,,3 E,2 E, |[M:3/4] [E,G,]6 |[M:3/8] [A,,A,]2 [A,,E,] | %6
[M:9/8] [A,,A,]3 [A,,A,]3 [A,,A,]2 [A,,A,] | [D,F,]3 [D,A,]3 [D,A,]2 [C,A,] | %8
 [B,,A,]3 [B,,A,]3 [B,,F,]2 [B,,A,] |[M:3/4] [E,G,E]6 |[M:3/8] [E,G,E]2 [E,A,E] | %11
[M:9/8] [E,B,E]3 [E,B,E]3 [E,G,E]2 [E,G,D] | [F,A,C]3 [F,A,C]3 [F,A,C]2 [F,B,C] | %13
 [F,CF]3 [F,A,C]3 [D,A,]2 [D,F,] |[M:3/4] [C,G,]6 |[M:3/8][K:treble] [A,E]2 [A,B,E] | %16
[M:9/8] [A,CE]3 [A,CE]3 [A,C_G]2 [A,G] | [D,A,]3 [D,A,D]3 [D,A,D]2 [D,A,D] | %18
 [E,A,C]3 [E,A,E]3 [E,G,D]2 [E,B,D] |[M:3/4] [A,,A,]6 |[M:3/8] [A,,E,]2 [A,,A,] | %21
[M:9/8] z3 z3[K:treble] .C3 | [A,FA]3 [A,EA]3[K:bass] [D,D]2 [D,A,] | %23
 [B,,A,]3 [B,,A,]3 [B,,F,]2 [B,,A,] |[M:3/4] E4 z2 |[M:3/8] A, z z |[M:9/8] z3 z3 .C3 | %27
 D,3 D,3 [D,D]2 [D,D] | [E,CE]3 [E,A,C]3 [E,G,D]2 [E,G,E] |[M:3/4] [A,,A,]6 |] %30
V:3
 x9 | x9 | x9 | x9 |[M:3/4] x6 |[M:3/8] x3 |[M:9/8] x9 | x9 | x9 |[M:3/4] x6 |[M:3/8] x3 | %11
[M:9/8] x9 | x9 | x9 |[M:3/4] x6 |[M:3/8][K:treble] x3 |[M:9/8] x9 | x9 | x9 |[M:3/4] x6 | %20
[M:3/8] x3 |[M:9/8] [A,,A,]3 [A,,A,]3[K:treble] [A,E]-[A,DE][A,EA] | x6[K:bass] x3 | x9 | %24
[M:3/4] [E,G,]6 |[M:3/8] [A,,E,]-[A,,E,B,][A,,A,] |[M:9/8] [A,,A,]3 [A,,A,]3 [A,E]-[A,DE]A, | x9 | %28
 x9 |[M:3/4] x6 |] %30
V:4
 x9 | x9 | x9 | x9 |[M:3/4] x6 |[M:3/8] x3 |[M:9/8] x9 | x9 | x9 |[M:3/4] x6 |[M:3/8] x3 | %11
[M:9/8] x9 | x9 | x9 |[M:3/4] x6 |[M:3/8] x3 |[M:9/8] x9 | x9 | x9 |[M:3/4] x6 |[M:3/8] x3 | %21
[M:9/8] x9 | x9 | x9 |[M:3/4] z2 z D3 |[M:3/8] x3 |[M:9/8] x9 | x9 | x9 |[M:3/4] x6 |] %30

